teeny/solid/password.svg

<svg width="15" height="15" viewBox="0 0 15 15" fill="none" xmlns="http://www.w3.org/2000/svg">
<path d="M11 11H10V10H11V11Z" fill="black"/>
<path d="M8 11H9V10H8V11Z" fill="black"/>
<path d="M13 11H12V10H13V11Z" fill="black"/>
<path fill-rule="evenodd" clip-rule="evenodd" d="M3 6V3.5C3 1.567 4.567 0 6.5 0C8.433 0 10 1.567 10 3.5V6H11.5C12.3284 6 13 6.67157 13 7.5V8.05001C14.1411 8.28164 15 9.29052 15 10.5C15 11.7095 14.1411 12.7184 13 12.95V13.5C13 14.3284 12.3284 15 11.5 15H1.5C0.671573 15 0 14.3284 0 13.5V7.5C0 6.67157 0.671573 6 1.5 6H3ZM4 3.5C4 2.11929 5.11929 1 6.5 1C7.88071 1 9 2.11929 9 3.5V6H4V3.5ZM8.5 9C7.67157 9 7 9.67157 7 10.5C7 11.3284 7.67157 12 8.5 12H12.5C13.3284 12 14 11.3284 14 10.5C14 9.67157 13.3284 9 12.5 9H8.5Z" fill="black"/>
</svg>

<svg viewBox="0 0 15 15" xmlns="http://www.w3.org/2000/svg"><g><path d="M11 11h-1v-1h1v1Z"/><path d="M8 11h1v-1H8v1Z"/><path d="M13 11h-1v-1h1v1Z"/><path fill-rule="evenodd" d="M3 6V3.5C3 1.567 4.56 0 6.5 0 8.43 0 10 1.567 10 3.5V6h1.5c.82 0 1.5.67 1.5 1.5v.55c1.14.23 2 1.24 2 2.44s-.86 2.21-2 2.45v.55c0 .82-.68 1.5-1.5 1.5h-10c-.83 0-1.5-.68-1.5-1.5v-6c0-.83.67-1.5 1.5-1.5H3Zm1-2.5C4 2.11 5.11 1 6.5 1 7.88 1 9 2.11 9 3.5V6H4V3.5ZM8.5 9C7.67 9 7 9.67 7 10.5c0 .82.67 1.5 1.5 1.5h4c.82 0 1.5-.68 1.5-1.5 0-.83-.68-1.5-1.5-1.5h-4Z"/></g></svg>
